svg/grave_stone.svg

<svg xmlns="http://www.w3.org/2000/svg" viewBox="0 0 24 24"><path d="M10 2h4c3.31 0 5 2.69 5 6v10.66C16.88 17.63 15.07 17 12 17s-4.88.63-7 1.66V8c0-3.31 1.69-6 5-6M8 8v1.5h8V8zm1 4v1.5h6V12zM3 22v-.69c2.66-1.69 10.23-5.47 18-.06V22z"/></svg>

<?xml version="1.0" encoding="UTF-8"?><!DOCTYPE svg PUBLIC "-//W3C//DTD SVG 1.1//EN" "http://www.w3.org/Graphics/SVG/1.1/DTD/svg11.dtd"><svg xmlns="http://www.w3.org/2000/svg" xmlns:xlink="http://www.w3.org/1999/xlink" version="1.1" id="mdi-grave-stone" width="24" height="24" viewBox="0 0 24 24"><path d="M10,2H14C17.31,2 19,4.69 19,8V18.66C16.88,17.63 15.07,17 12,17C8.93,17 7.12,17.63 5,18.66V8C5,4.69 6.69,2 10,2M8,8V9.5H16V8H8M9,12V13.5H15V12H9M3,22V21.31C5.66,19.62 13.23,15.84 21,21.25V22H3Z" /></svg>
